assets/img/braze_icons/check-square-broken.svg

<svg fill="none" height="24" viewBox="0 0 24 24" width="24" xmlns="http://www.w3.org/2000/svg"><path d="m17.8385 2h-11.67704c-.52713-.00002-.98192-.00003-1.35649.03057-.39534.0323-.78856.10362-1.16694.29641-.56449.28762-1.02343.74656-1.31105 1.31105-.19279.37838-.26411.7716-.29641 1.16694-.0306.37457-.03059.82932-.03057 1.35645v11.67708c-.00002.5272-.00003.982.03057 1.3565.0323.3954.10362.7886.29641 1.167.28762.5645.74656 1.0234 1.31105 1.311.37838.1928.7716.2641 1.16694.2964.37457.0306.82933.0306 1.35647.0306h11.67716c.5271 0 .9819 0 1.3564-.0306.3954-.0323.7886-.1036 1.167-.2964.5645-.2876 1.0234-.7465 1.311-1.311.1928-.3784.2641-.7716.2964-1.167.0306-.3745.0306-.8293.0306-1.3564v-7.6772c0-.1521 0-1.60026-.0007-2.85851-.0004-.57677-.0005-.86516-.1203-1.00533-.1032-.12074-.2611-.18607-.4194-.17358-.1839.0145-.3881.21871-.7965.62713l-7.956 7.95599c-.3905.3905-1.0237.3905-1.4142 0l-3.00001-3c-.39052-.3905-.39052-1.0237 0-1.4142.39053-.39053 1.02369-.39053 1.41422 0l2.29289 2.2929 8.4319-8.41928c.279-.2786.4185-.41789.4855-.68818.049-.1976-.014-.59585-.1215-.76872-.147-.23646-.2427-.28519-.4339-.38264-.3784-.19279-.7716-.26411-1.167-.29641-.3745-.0306-.8293-.03059-1.3565-.03057z" fill="#801ed7"/></svg>

<svg width="24" height="24" viewBox="0 0 24 24" fill="none" xmlns="http://www.w3.org/2000/svg">
<path d="M17.8385 2H6.16146C5.63433 1.99998 5.17954 1.99997 4.80497 2.03057C4.40963 2.06287 4.01641 2.13419 3.63803 2.32698C3.07354 2.6146 2.6146 3.07354 2.32698 3.63803C2.13419 4.01641 2.06287 4.40963 2.03057 4.80497C1.99997 5.17954 1.99998 5.63429 2 6.16142V17.8385C1.99998 18.3657 1.99997 18.8205 2.03057 19.195C2.06287 19.5904 2.13419 19.9836 2.32698 20.362C2.6146 20.9265 3.07354 21.3854 3.63803 21.673C4.01641 21.8658 4.40963 21.9371 4.80497 21.9694C5.17954 22 5.6343 22 6.16144 22H17.8386C18.3657 22 18.8205 22 19.195 21.9694C19.5904 21.9371 19.9836 21.8658 20.362 21.673C20.9265 21.3854 21.3854 20.9265 21.673 20.362C21.8658 19.9836 21.9371 19.5904 21.9694 19.195C22 18.8205 22 18.3657 22 17.8386V10.1614C22 10.0093 22 8.56114 21.9993 7.30289C21.9989 6.72612 21.9988 6.43773 21.879 6.29756C21.7758 6.17682 21.6179 6.11149 21.4596 6.12398C21.2757 6.13848 21.0715 6.34269 20.6631 6.75111L12.7071 14.7071C12.3166 15.0976 11.6834 15.0976 11.2929 14.7071L8.29289 11.7071C7.90237 11.3166 7.90237 10.6834 8.29289 10.2929C8.68342 9.90237 9.31658 9.90237 9.70711 10.2929L12 12.5858L20.4319 4.16652C20.7109 3.88792 20.8504 3.74863 20.9174 3.47834C20.9664 3.28074 20.9034 2.88249 20.7959 2.70962C20.6489 2.47316 20.5532 2.42443 20.362 2.32698C19.9836 2.13419 19.5904 2.06287 19.195 2.03057C18.8205 1.99997 18.3657 1.99998 17.8385 2Z" fill="#801ED7"/>
</svg>
